icons/24x24_products_filled.svg

<svg xmlns="http://www.w3.org/2000/svg" width="24" height="24" viewBox="0 0 24 24">
  <path d="M11,5.17157288 L9.34314575,6.82842712 C8.56209717,7.60947571 8.56209717,8.87580567 9.34314575,9.65685425 L10.715317,11.0290255 C10.3655671,11.6107838 9.72823668,12 9,12 L5,12 C3.8954305,12 3,11.1045695 3,10 L3,5 C3,3.8954305 3.8954305,3 5,3 L9,3 C10.1045695,3 11,3.8954305 11,5 L11,5.17157288 Z M15.7071068,3.29289322 L19.9497475,7.53553391 C20.3402718,7.9260582 20.3402718,8.55922318 19.9497475,8.94974747 L15.9333254,12.9841634 L14.0925387,12.9841634 L10.0502525,8.94974747 C9.65972824,8.55922318 9.65972824,7.9260582 10.0502525,7.53553391 L14.2928932,3.29289322 C14.6834175,2.90236893 15.3165825,2.90236893 15.7071068,3.29289322 Z M5,13 C3.8954305,13 3,13.8954305 3,15 L3,19 C3,20.1045695 3.8954305,21 5,21 L19,21 C20.1045695,21 21,20.1045695 21,19 L21,15 C21,13.8954305 20.1045695,13 19,13 L5,13 Z"/>
</svg>

<svg width="24" height="24" fill="none" xmlns="http://www.w3.org/2000/svg"><path d="M11 5.172 9.343 6.828a2 2 0 0 0 0 2.829l1.372 1.372c-.35.582-.987.971-1.715.971H5a2 2 0 0 1-2-2V5a2 2 0 0 1 2-2h4a2 2 0 0 1 2 2v.172Zm4.707-1.88 4.243 4.244a1 1 0 0 1 0 1.414l-4.017 4.034h-1.84L10.05 8.95a1 1 0 0 1 0-1.414l4.243-4.243a1 1 0 0 1 1.414 0ZM5 13a2 2 0 0 0-2 2v4a2 2 0 0 0 2 2h14a2 2 0 0 0 2-2v-4a2 2 0 0 0-2-2H5Z" fill="#000"/></svg>
